lib/svgs/video.svg

<?xml version="1.0" encoding="UTF-8"?>
<svg width="16px" height="16px" viewBox="0 0 16 16" version="1.1" xmlns="http://www.w3.org/2000/svg" xmlns:xlink="http://www.w3.org/1999/xlink">
    <!-- Generator: sketchtool 51.3 (57544) - http://www.bohemiancoding.com/sketch -->
    <title>app/video</title>
    <desc>Created with sketchtool.</desc>
    <defs></defs>
    <g id="Icons" stroke="none" stroke-width="1" fill="none" fill-rule="evenodd">
        <g id="Web" transform="translate(-147.000000, -552.000000)" fill="#000000">
            <g id="app/video" transform="translate(147.000000, 552.000000)">
                <path d="M11.427,10.6462233 L11.427,13.145 C11.427,13.4763708 11.1583708,13.745 10.827,13.745 L0.6,13.745 C0.26862915,13.745 0,13.4763708 0,13.145 L0,3.6 C0,3.26862915 0.26862915,3 0.6,3 L10.827,3 C11.1583708,3 11.427,3.26862915 11.427,3.6 L11.427,6.09857672 L15.3637042,4.41188908 C15.7596184,4.24225895 16.2,4.53267682 16.2,4.9634 L16.2,11.7814 C16.2,12.2121232 15.7596184,12.502541 15.3637042,12.3329109 L11.427,10.6462233 L11.427,10.6462233 L11.427,10.6462233 M11.427,9.33609783 L15,10.9082209 L15,5.88733953 L11.427,7.39094054 M1.21403447,4.20000002 L1.21403447,12.5449997 L10.2269999,12.5449997 L10.2269999,4.20000002" id="Shape"></path>
            </g>
        </g>
    </g>
</svg>

<svg xmlns="http://www.w3.org/2000/svg" viewBox="0 0 16 16">
    <path d="M11.427 10.646v2.499a.6.6 0 0 1-.6.6H.6a.6.6 0 0 1-.6-.6V3.6A.6.6 0 0 1 .6 3h10.227a.6.6 0 0 1 .6.6v2.499l3.937-1.687a.6.6 0 0 1 .836.551v6.818a.6.6 0 0 1-.836.552l-3.937-1.687m0-1.31L15 10.908v-5.02L11.427 7.39M1.214 4.2v8.345h9.013V4.2"/>
</svg>
